status/48/network-idle.svg

<?xml version="1.0" encoding="UTF-8" standalone="no"?>
<!-- Created with Inkscape (http://www.inkscape.org/) -->

<svg
   xmlns:svg="http://www.w3.org/2000/svg"
   xmlns="http://www.w3.org/2000/svg"
   xmlns:xlink="http://www.w3.org/1999/xlink"
   version="1.0"
   width="48"
   height="48"
   id="svg3222">
  <defs
     id="defs3224">
    <linearGradient
       id="linearGradient10691">
      <stop
         id="stop10693"
         style="stop-color:black;stop-opacity:1"
         offset="0" />
      <stop
         id="stop10695"
         style="stop-color:black;stop-opacity:0"
         offset="1" />
    </linearGradient>
    <radialGradient
       cx="6.702713"
       cy="73.615715"
       r="7.228416"
       fx="6.702713"
       fy="73.615715"
       id="radialGradient2432"
       xlink:href="#linearGradient10691"
       gradientUnits="userSpaceOnUse"
       gradientTransform="scale(1.902215,0.525703)" />
    <linearGradient
       id="linearGradient2190">
      <stop
         id="stop2192"
         style="stop-color:#dadada;stop-opacity:1"
         offset="0" />
      <stop
         id="stop2196"
         style="stop-color:#707070;stop-opacity:1"
         offset="1" />
    </linearGradient>
    <linearGradient
       x1="72.67894"
       y1="204.05263"
       x2="72.67894"
       y2="180.04262"
       id="linearGradient2448"
       xlink:href="#linearGradient2190"
       gradientUnits="userSpaceOnUse"
       gradientTransform="matrix(0.1271673,0,0,0.1311912,6.7576155,1.2678888)" />
    <linearGradient
       id="linearGradient2327">
      <stop
         id="stop2329"
         style="stop-color:#131313;stop-opacity:1"
         offset="0" />
      <stop
         id="stop2331"
         style="stop-color:#585858;stop-opacity:1"
         offset="1" />
    </linearGradient>
    <linearGradient
       x1="32.733955"
       y1="3.1467361"
       x2="32.733955"
       y2="33.843147"
       id="linearGradient2444"
       xlink:href="#linearGradient2327"
       gradientUnits="userSpaceOnUse"
       gradientTransform="matrix(0.6806966,0,0,0.6977245,-0.4046635,-0.4781701)" />
    <linearGradient
       id="linearGradient6240">
      <stop
         id="stop6242"
         style="stop-color:white;stop-opacity:1"
         offset="0" />
      <stop
         id="stop6244"
         style="stop-color:white;stop-opacity:0"
         offset="1" />
    </linearGradient>
    <linearGradient
       x1="20.156862"
       y1="5.0996137"
       x2="20.156862"
       y2="26.039215"
       id="linearGradient2441"
       xlink:href="#linearGradient6240"
       gradientUnits="userSpaceOnUse"
       gradientTransform="matrix(0.8011764,0,0,0.8316424,-3.2345171,-5.0638127)" />
    <radialGradient
       cx="6.702713"
       cy="73.615715"
       r="7.228416"
       fx="6.702713"
       fy="73.615715"
       id="radialGradient2417"
       xlink:href="#linearGradient10691"
       gradientUnits="userSpaceOnUse"
       gradientTransform="scale(1.902215,0.525703)" />
    <linearGradient
       x1="72.67894"
       y1="204.05263"
       x2="72.67894"
       y2="180.04262"
       id="linearGradient2419"
       xlink:href="#linearGradient2190"
       gradientUnits="userSpaceOnUse"
       gradientTransform="matrix(0.1271673,0,0,0.1311912,6.7576155,1.2678888)" />
    <linearGradient
       x1="32.733955"
       y1="3.1467361"
       x2="32.733955"
       y2="33.843147"
       id="linearGradient2421"
       xlink:href="#linearGradient2327"
       gradientUnits="userSpaceOnUse"
       gradientTransform="matrix(0.6806966,0,0,0.6977245,-0.4046635,-0.4781701)" />
    <linearGradient
       x1="20.156862"
       y1="5.0996137"
       x2="20.156862"
       y2="26.039215"
       id="linearGradient2423"
       xlink:href="#linearGradient6240"
       gradientUnits="userSpaceOnUse"
       gradientTransform="matrix(0.8011764,0,0,0.8316424,-3.2345171,-5.0638127)" />
  </defs>
  <g
     transform="translate(16.000043,0)"
     id="layer1">
    <path
       d="m 26.5,38.700001 c 0,2.098682 -6.156085,3.8 -13.75,3.8 -7.5939153,0 -13.75,-1.701318 -13.75,-3.8 0,-2.098682 6.1560847,-3.8 13.75,-3.8 7.593915,0 13.75,1.701318 13.75,3.8 z"
       transform="matrix(1.1041703,0,0,1.2365368,1.921807,-19.552815)"
       id="path2883"
       style="opacity:0.4;fill:url(#radialGradient2432);fill-opacity:1;fill-rule:nonzero;stroke:none;stroke-width:0.80000001;marker:none;visibility:visible;display:inline;overflow:visible" />
    <path
       d="m 9.2578693,24.264781 c 0,0 -0.9741997,4.308715 -0.9741997,4.596536 0,0.271876 -0.2192087,1.878812 0.6729374,1.878812 0.8765341,0 13.577536,0 14.258283,0 0.68203,0 0.463894,-1.924263 0.522993,-2.075969 0.05716,-0.146727 -0.99589,-4.404289 -0.99589,-4.404289 l -13.4841237,0.0049 z"
       id="path2170"
       style="fill:#b3b3b3;fill-opacity:1;fill-rule:evenodd;stroke:#4d4d4d;stroke-width:0.51974148;stroke-linecap:round;stroke-linejoin:round;stroke-miterlimit:4;stroke-opacity:1;stroke-dasharray:none" />
    <path
       d="m 9.4672719,23.023797 c 0,0 -0.7220495,4.094255 -0.8875038,4.731279 C 8.4154399,28.387762 8.4519225,28.5 9.2048698,28.5 c 0.7377462,0 13.0837372,0 13.6803012,0 0.611572,0 0.678324,-0.224125 0.575015,-0.752085 -0.101023,-0.516254 -0.927457,-4.72857 -0.927457,-4.72857 l -13.0654571,0.0045 z"
       id="path2186"
       style="opacity:0.4;fill:url(#linearGradient2448);fill-opacity:1;fill-rule:evenodd;stroke:white;stroke-width:1;stroke-linecap:round;stroke-linejoin:round;stroke-miterlimit:4;stroke-opacity:1;stroke-dasharray:none" />
    <path
       d="m 1.3799067,0.25466062 c 9.7467143,0 19.4934293,0 29.2401423,0 1.086597,-0.008969 1.179442,1.18764378 1.106742,2.01326698 0,7.1125313 -2e-6,14.2250624 -2e-6,21.3375914 0.0089,1.100667 -1.172463,1.194712 -1.987532,1.121071 -9.453117,0 -18.906234,0 -28.3593503,0 -1.08659712,0.009 -1.17944143,-1.187641 -1.10674094,-2.013265 0,-7.112531 0,-14.2250623 0,-21.3375937 C 0.2588,0.77312689 0.78480308,0.24015884 1.3799067,0.25466062 z"
       id="rect3170"
       style="fill:#333;fill-opacity:1;fill-rule:evenodd;stroke:#1a1a1a;stroke-width:0.50874043;stroke-linecap:round;stroke-linejoin:round;stroke-miterlimit:4;stroke-opacity:1;stroke-dasharray:none;stroke-dashoffset:0;marker:none;visibility:visible;display:inline;overflow:visible;enable-background:accumulate" />
    <path
       d="m 1.2544863,1.2544867 c 9.8303427,0 19.6606847,0 29.4910257,0 0,7.4970079 0,14.9940163 0,22.4910263 -9.830341,0 -19.660683,0 -29.4910257,0 0,-7.49701 0,-14.9940184 0,-22.4910263 z"
       id="rect4151"
       style="fill:url(#linearGradient2444);fill-opacity:1;fill-rule:evenodd;stroke:black;stroke-width:0.50897276;stroke-linecap:round;stroke-linejoin:round;stroke-miterlimit:4;stroke-opacity:1;stroke-dasharray:none;stroke-dashoffset:0;marker:none;visibility:visible;display:inline;overflow:visible;enable-background:accumulate" />
    <path
       d="m 1.5913922,1.6154165 0,14.9760855 C 14.766294,15.465252 19.696926,8.1815865 30.4086,7.4206052 l 7e-6,-5.8312788 -28.8172148,0.02609 z"
       id="path4073"
       style="opacity:0.4;fill:url(#linearGradient2441);fill-opacity:1;fill-rule:evenodd;stroke:none" />
  </g>
  <g
     transform="translate(0,15)"
     id="g2403">
    <path
       d="m 26.5,38.700001 c 0,2.098682 -6.156085,3.8 -13.75,3.8 -7.5939153,0 -13.75,-1.701318 -13.75,-3.8 0,-2.098682 6.1560847,-3.8 13.75,-3.8 7.593915,0 13.75,1.701318 13.75,3.8 z"
       transform="matrix(1.1041703,0,0,1.2365368,1.921807,-19.552815)"
       id="path2405"
       style="opacity:0.4;fill:url(#radialGradient2417);fill-opacity:1;fill-rule:nonzero;stroke:none;stroke-width:0.80000001;marker:none;visibility:visible;display:inline;overflow:visible" />
    <path
       d="m 9.2578693,24.264781 c 0,0 -0.9741997,4.308715 -0.9741997,4.596536 0,0.271876 -0.2192087,1.878812 0.6729374,1.878812 0.8765341,0 13.577536,0 14.258283,0 0.68203,0 0.463894,-1.924263 0.522993,-2.075969 0.05716,-0.146727 -0.99589,-4.404289 -0.99589,-4.404289 l -13.4841237,0.0049 z"
       id="path2407"
       style="fill:#b3b3b3;fill-opacity:1;fill-rule:evenodd;stroke:#4d4d4d;stroke-width:0.51974148;stroke-linecap:round;stroke-linejoin:round;stroke-miterlimit:4;stroke-opacity:1;stroke-dasharray:none" />
    <path
       d="m 9.4672719,23.023797 c 0,0 -0.7220495,4.094255 -0.8875038,4.731279 C 8.4154399,28.387762 8.4519225,28.5 9.2048698,28.5 c 0.7377462,0 13.0837372,0 13.6803012,0 0.611572,0 0.678324,-0.224125 0.575015,-0.752085 -0.101023,-0.516254 -0.927457,-4.72857 -0.927457,-4.72857 l -13.0654571,0.0045 z"
       id="path2409"
       style="opacity:0.4;fill:url(#linearGradient2419);fill-opacity:1;fill-rule:evenodd;stroke:white;stroke-width:1;stroke-linecap:round;stroke-linejoin:round;stroke-miterlimit:4;stroke-opacity:1;stroke-dasharray:none" />
    <path
       d="m 1.3799067,0.25466062 c 9.7467143,0 19.4934293,0 29.2401423,0 1.086597,-0.008969 1.179442,1.18764378 1.106742,2.01326698 0,7.1125313 -2e-6,14.2250624 -2e-6,21.3375914 0.0089,1.100667 -1.172463,1.194712 -1.987532,1.121071 -9.453117,0 -18.906234,0 -28.3593503,0 -1.08659712,0.009 -1.17944143,-1.187641 -1.10674094,-2.013265 0,-7.112531 0,-14.2250623 0,-21.3375937 C 0.2588,0.77312689 0.78480308,0.24015884 1.3799067,0.25466062 z"
       id="path2411"
       style="fill:#333;fill-opacity:1;fill-rule:evenodd;stroke:#1a1a1a;stroke-width:0.50874043;stroke-linecap:round;stroke-linejoin:round;stroke-miterlimit:4;stroke-opacity:1;stroke-dasharray:none;stroke-dashoffset:0;marker:none;visibility:visible;display:inline;overflow:visible;enable-background:accumulate" />
    <path
       d="m 1.2544863,1.2544867 c 9.8303427,0 19.6606847,0 29.4910257,0 0,7.4970079 0,14.9940163 0,22.4910263 -9.830341,0 -19.660683,0 -29.4910257,0 0,-7.49701 0,-14.9940184 0,-22.4910263 z"
       id="path2413"
       style="fill:url(#linearGradient2421);fill-opacity:1;fill-rule:evenodd;stroke:black;stroke-width:0.50897276;stroke-linecap:round;stroke-linejoin:round;stroke-miterlimit:4;stroke-opacity:1;stroke-dasharray:none;stroke-dashoffset:0;marker:none;visibility:visible;display:inline;overflow:visible;enable-background:accumulate" />
    <path
       d="m 1.5913922,1.6154165 0,14.9760855 C 14.766294,15.465252 19.696926,8.1815865 30.4086,7.4206052 l 7e-6,-5.8312788 -28.8172148,0.02609 z"
       id="path2415"
       style="opacity:0.4;fill:url(#linearGradient2423);fill-opacity:1;fill-rule:evenodd;stroke:none" />
  </g>
</svg>

<?xml version="1.0" encoding="UTF-8" standalone="no"?>
<!-- Created with Inkscape (http://www.inkscape.org/) -->
<svg
   xmlns:svg="http://www.w3.org/2000/svg"
   xmlns="http://www.w3.org/2000/svg"
   xmlns:xlink="http://www.w3.org/1999/xlink"
   version="1.0"
   width="48"
   height="48"
   id="svg3222">
  <defs
     id="defs3224">
    <linearGradient
       id="linearGradient10691">
      <stop
         id="stop10693"
         style="stop-color:#000000;stop-opacity:1"
         offset="0" />
      <stop
         id="stop10695"
         style="stop-color:#000000;stop-opacity:0"
         offset="1" />
    </linearGradient>
    <radialGradient
       cx="6.702713"
       cy="73.615715"
       r="7.228416"
       fx="6.702713"
       fy="73.615715"
       id="radialGradient2432"
       xlink:href="#linearGradient10691"
       gradientUnits="userSpaceOnUse"
       gradientTransform="scale(1.902215,0.525703)" />
    <linearGradient
       id="linearGradient2190">
      <stop
         id="stop2192"
         style="stop-color:#dadada;stop-opacity:1"
         offset="0" />
      <stop
         id="stop2196"
         style="stop-color:#707070;stop-opacity:1"
         offset="1" />
    </linearGradient>
    <linearGradient
       x1="72.67894"
       y1="204.05263"
       x2="72.67894"
       y2="180.04262"
       id="linearGradient2448"
       xlink:href="#linearGradient2190"
       gradientUnits="userSpaceOnUse"
       gradientTransform="matrix(0.1271673,0,0,0.1311912,6.7576155,1.2678888)" />
    <linearGradient
       id="linearGradient2327">
      <stop
         id="stop2329"
         style="stop-color:#131313;stop-opacity:1"
         offset="0" />
      <stop
         id="stop2331"
         style="stop-color:#585858;stop-opacity:1"
         offset="1" />
    </linearGradient>
    <linearGradient
       x1="32.733955"
       y1="3.1467361"
       x2="32.733955"
       y2="33.843147"
       id="linearGradient2444"
       xlink:href="#linearGradient2327"
       gradientUnits="userSpaceOnUse"
       gradientTransform="matrix(0.6806966,0,0,0.6977245,-0.4046635,-0.4781701)" />
    <linearGradient
       id="linearGradient6240">
      <stop
         id="stop6242"
         style="stop-color:#ffffff;stop-opacity:1"
         offset="0" />
      <stop
         id="stop6244"
         style="stop-color:#ffffff;stop-opacity:0"
         offset="1" />
    </linearGradient>
    <linearGradient
       x1="20.156862"
       y1="5.0996137"
       x2="20.156862"
       y2="26.039215"
       id="linearGradient2441"
       xlink:href="#linearGradient6240"
       gradientUnits="userSpaceOnUse"
       gradientTransform="matrix(0.8011764,0,0,0.8316424,-3.2345171,-5.0638127)" />
    <radialGradient
       cx="6.702713"
       cy="73.615715"
       r="7.228416"
       fx="6.702713"
       fy="73.615715"
       id="radialGradient2417"
       xlink:href="#linearGradient10691"
       gradientUnits="userSpaceOnUse"
       gradientTransform="scale(1.902215,0.525703)" />
    <linearGradient
       x1="72.67894"
       y1="204.05263"
       x2="72.67894"
       y2="180.04262"
       id="linearGradient2419"
       xlink:href="#linearGradient2190"
       gradientUnits="userSpaceOnUse"
       gradientTransform="matrix(0.1271673,0,0,0.1311912,6.7576155,1.2678888)" />
    <linearGradient
       x1="32.733955"
       y1="3.1467361"
       x2="32.733955"
       y2="33.843147"
       id="linearGradient2421"
       xlink:href="#linearGradient2327"
       gradientUnits="userSpaceOnUse"
       gradientTransform="matrix(0.6806966,0,0,0.6977245,-0.4046635,-0.4781701)" />
    <linearGradient
       x1="20.156862"
       y1="5.0996137"
       x2="20.156862"
       y2="26.039215"
       id="linearGradient2423"
       xlink:href="#linearGradient6240"
       gradientUnits="userSpaceOnUse"
       gradientTransform="matrix(0.8011764,0,0,0.8316424,-3.2345171,-5.0638127)" />
  </defs>
  <g
     transform="translate(16.000043,0)"
     id="layer1">
    <path
       d="M 26.5,38.700001 C 26.5,40.798683 20.343915,42.500001 12.75,42.500001 C 5.1560847,42.500001 -1,40.798683 -1,38.700001 C -1,36.601319 5.1560847,34.900001 12.75,34.900001 C 20.343915,34.900001 26.5,36.601319 26.5,38.700001 z"
       transform="matrix(1.1041703,0,0,1.2365368,1.921807,-19.552815)"
       id="path2883"
       style="opacity:0.4;fill:url(#radialGradient2432);fill-opacity:1;fill-rule:nonzero;stroke:none;stroke-width:0.80000001;stroke-linecap:butt;stroke-linejoin:miter;marker:none;marker-start:none;marker-mid:none;marker-end:none;stroke-miterlimit:4;stroke-dashoffset:0;stroke-opacity:1;visibility:visible;display:inline;overflow:visible" />
    <path
       d="M 9.2578693,24.264781 C 9.2578693,24.264781 8.2836696,28.573496 8.2836696,28.861317 C 8.2836696,29.133193 8.0644609,30.740129 8.956607,30.740129 C 9.8331411,30.740129 22.534143,30.740129 23.21489,30.740129 C 23.89692,30.740129 23.678784,28.815866 23.737883,28.66416 C 23.795042,28.517433 22.741993,24.259871 22.741993,24.259871 L 9.2578693,24.264781 z"
       id="path2170"
       style="fill:#b3b3b3;fill-opacity:1;fill-rule:evenodd;stroke:#4d4d4d;stroke-width:0.51974148;stroke-linecap:round;stroke-linejoin:round;stroke-miterlimit:4;stroke-dasharray:none;stroke-opacity:1" />
    <path
       d="M 9.4672719,23.023797 C 9.4672719,23.023797 8.7452224,27.118052 8.5797681,27.755076 C 8.4154399,28.387762 8.4519225,28.5 9.2048698,28.5 C 9.942616,28.5 22.288607,28.5 22.885171,28.5 C 23.496743,28.5 23.563495,28.275875 23.460186,27.747915 C 23.359163,27.231661 22.532729,23.019345 22.532729,23.019345 L 9.4672719,23.023797 z"
       id="path2186"
       style="opacity:0.4;fill:url(#linearGradient2448);fill-opacity:1;fill-rule:evenodd;stroke:#ffffff;stroke-width:1;stroke-linecap:round;stroke-linejoin:round;stroke-miterlimit:4;stroke-dasharray:none;stroke-opacity:1" />
    <path
       d="M 1.3799067,0.25466062 C 11.126621,0.25466062 20.873336,0.25466062 30.620049,0.25466062 C 31.706646,0.24569175 31.799491,1.4423044 31.726791,2.2679276 C 31.726791,9.3804589 31.726789,16.49299 31.726789,23.605519 C 31.735647,24.706186 30.554326,24.800231 29.739257,24.72659 C 20.28614,24.72659 10.833023,24.72659 1.3799067,24.72659 C 0.29330958,24.735561 0.20046527,23.538949 0.27316576,22.713325 C 0.27316576,15.600794 0.27316576,8.4882627 0.27316576,1.3757313 C 0.2588,0.77312689 0.78480308,0.24015884 1.3799067,0.25466062 z"
       id="rect3170"
       style="fill:#333333;fill-opacity:1;fill-rule:evenodd;stroke:#1a1a1a;stroke-width:0.50874043;stroke-linecap:round;stroke-linejoin:round;marker:none;marker-start:none;marker-mid:none;marker-end:none;stroke-miterlimit:4;stroke-dasharray:none;stroke-dashoffset:0;stroke-opacity:1;visibility:visible;display:inline;overflow:visible;enable-background:accumulate" />
    <path
       d="M 1.2544863,1.2544867 C 11.084829,1.2544867 20.915171,1.2544867 30.745512,1.2544867 C 30.745512,8.7514946 30.745512,16.248503 30.745512,23.745513 C 20.915171,23.745513 11.084829,23.745513 1.2544863,23.745513 C 1.2544863,16.248503 1.2544863,8.7514946 1.2544863,1.2544867 z"
       id="rect4151"
       style="fill:url(#linearGradient2444);fill-opacity:1;fill-rule:evenodd;stroke:#000000;stroke-width:0.50897276;stroke-linecap:round;stroke-linejoin:round;marker:none;marker-start:none;marker-mid:none;marker-end:none;stroke-miterlimit:4;stroke-dasharray:none;stroke-dashoffset:0;stroke-opacity:1;visibility:visible;display:inline;overflow:visible;enable-background:accumulate" />
    <path
       d="M 1.5913922,1.6154165 L 1.5913922,16.591502 C 14.766294,15.465252 19.696926,8.1815865 30.4086,7.4206052 L 30.408607,1.5893264 L 1.5913922,1.6154165 z"
       id="path4073"
       style="opacity:0.4;fill:url(#linearGradient2441);fill-opacity:1;fill-rule:evenodd;stroke:none;stroke-width:1px;stroke-linecap:butt;stroke-linejoin:miter;stroke-opacity:1" />
  </g>
  <g
     transform="translate(0,15)"
     id="g2403">
    <path
       d="M 26.5,38.700001 C 26.5,40.798683 20.343915,42.500001 12.75,42.500001 C 5.1560847,42.500001 -1,40.798683 -1,38.700001 C -1,36.601319 5.1560847,34.900001 12.75,34.900001 C 20.343915,34.900001 26.5,36.601319 26.5,38.700001 z"
       transform="matrix(1.1041703,0,0,1.2365368,1.921807,-19.552815)"
       id="path2405"
       style="opacity:0.4;fill:url(#radialGradient2417);fill-opacity:1;fill-rule:nonzero;stroke:none;stroke-width:0.80000001;stroke-linecap:butt;stroke-linejoin:miter;marker:none;marker-start:none;marker-mid:none;marker-end:none;stroke-miterlimit:4;stroke-dashoffset:0;stroke-opacity:1;visibility:visible;display:inline;overflow:visible" />
    <path
       d="M 9.2578693,24.264781 C 9.2578693,24.264781 8.2836696,28.573496 8.2836696,28.861317 C 8.2836696,29.133193 8.0644609,30.740129 8.956607,30.740129 C 9.8331411,30.740129 22.534143,30.740129 23.21489,30.740129 C 23.89692,30.740129 23.678784,28.815866 23.737883,28.66416 C 23.795042,28.517433 22.741993,24.259871 22.741993,24.259871 L 9.2578693,24.264781 z"
       id="path2407"
       style="fill:#b3b3b3;fill-opacity:1;fill-rule:evenodd;stroke:#4d4d4d;stroke-width:0.51974148;stroke-linecap:round;stroke-linejoin:round;stroke-miterlimit:4;stroke-dasharray:none;stroke-opacity:1" />
    <path
       d="M 9.4672719,23.023797 C 9.4672719,23.023797 8.7452224,27.118052 8.5797681,27.755076 C 8.4154399,28.387762 8.4519225,28.5 9.2048698,28.5 C 9.942616,28.5 22.288607,28.5 22.885171,28.5 C 23.496743,28.5 23.563495,28.275875 23.460186,27.747915 C 23.359163,27.231661 22.532729,23.019345 22.532729,23.019345 L 9.4672719,23.023797 z"
       id="path2409"
       style="opacity:0.4;fill:url(#linearGradient2419);fill-opacity:1;fill-rule:evenodd;stroke:#ffffff;stroke-width:1;stroke-linecap:round;stroke-linejoin:round;stroke-miterlimit:4;stroke-dasharray:none;stroke-opacity:1" />
    <path
       d="M 1.3799067,0.25466062 C 11.126621,0.25466062 20.873336,0.25466062 30.620049,0.25466062 C 31.706646,0.24569175 31.799491,1.4423044 31.726791,2.2679276 C 31.726791,9.3804589 31.726789,16.49299 31.726789,23.605519 C 31.735647,24.706186 30.554326,24.800231 29.739257,24.72659 C 20.28614,24.72659 10.833023,24.72659 1.3799067,24.72659 C 0.29330958,24.735561 0.20046527,23.538949 0.27316576,22.713325 C 0.27316576,15.600794 0.27316576,8.4882627 0.27316576,1.3757313 C 0.2588,0.77312689 0.78480308,0.24015884 1.3799067,0.25466062 z"
       id="path2411"
       style="fill:#333333;fill-opacity:1;fill-rule:evenodd;stroke:#1a1a1a;stroke-width:0.50874043;stroke-linecap:round;stroke-linejoin:round;marker:none;marker-start:none;marker-mid:none;marker-end:none;stroke-miterlimit:4;stroke-dasharray:none;stroke-dashoffset:0;stroke-opacity:1;visibility:visible;display:inline;overflow:visible;enable-background:accumulate" />
    <path
       d="M 1.2544863,1.2544867 C 11.084829,1.2544867 20.915171,1.2544867 30.745512,1.2544867 C 30.745512,8.7514946 30.745512,16.248503 30.745512,23.745513 C 20.915171,23.745513 11.084829,23.745513 1.2544863,23.745513 C 1.2544863,16.248503 1.2544863,8.7514946 1.2544863,1.2544867 z"
       id="path2413"
       style="fill:url(#linearGradient2421);fill-opacity:1;fill-rule:evenodd;stroke:#000000;stroke-width:0.50897276;stroke-linecap:round;stroke-linejoin:round;marker:none;marker-start:none;marker-mid:none;marker-end:none;stroke-miterlimit:4;stroke-dasharray:none;stroke-dashoffset:0;stroke-opacity:1;visibility:visible;display:inline;overflow:visible;enable-background:accumulate" />
    <path
       d="M 1.5913922,1.6154165 L 1.5913922,16.591502 C 14.766294,15.465252 19.696926,8.1815865 30.4086,7.4206052 L 30.408607,1.5893264 L 1.5913922,1.6154165 z"
       id="path2415"
       style="opacity:0.4;fill:url(#linearGradient2423);fill-opacity:1;fill-rule:evenodd;stroke:none;stroke-width:1px;stroke-linecap:butt;stroke-linejoin:miter;stroke-opacity:1" />
  </g>
</svg>
